X: 825
T: Rights Of Man, The
B: jims roots
M:4/4
L:1/8
R: hornpipe
Q: 1/4=100
K:Emin
V:1 
GA |: "Em"(3BcB (3ABA (3GAG (3FGF | EFGA B2ef | "G"gfed "Em"edcB |
"Am"cBAG "B"F2GA |  "Em"(3BcB (3ABA (3GAG (3FGF | EFGA B2ef |
"G"gfed "B"Bg (3fgf |[1 "Em"e2 B2 E2 GA:| [2 "Em"e2 B2 E2 ga |:"Em"bgbg efga |
bagf egfe | "D"d^cde fefg | afdf a2 gf | "Em"eBeg "D"fdfa |
"Em"gfga bgef | gfed "B"Bg (3fgf | [1 "Em"e2 B2 E2 ga:| [2 "Em"e2 B2 E2|]
% abcbook-tune_id 6298c27979e187c8576712e2


% abcbook-boost 0
% abcbook-tablature 
% abcbook-transpose 
% abcbook-lastupdated 1654178426910
% abcbook-soundfonts 
% abcbook-repeats 1


